images/show.svg

<svg width="24" height="24" xmlns="http://www.w3.org/2000/svg">

 <g>
  <title>background</title>
  <rect fill="none" id="canvas_background" height="402" width="582" y="-1" x="-1"/>
 </g>
 <g>
  <title>Layer 1</title>
  <path transform="rotate(-180 12.00007152557373,12.439420700073242) " id="svg_1" fill="#41F6D7" d="m14.5001,7.50008l-2.5,2.50002l-2.50002,-2.50002c-0.27615,-0.27615 -0.72386,-0.27615 -1,0c-0.27615,0.27614 -0.27615,0.72385 0,1l2.79292,2.79292c0.3905,0.3905 1.0237,0.3905 1.4142,0l2.7929,-2.79292c0.2761,-0.27615 0.2761,-0.72386 0,-1c-0.2762,-0.27615 -0.7239,-0.27615 -1,0zm0,6.00002l-2.5,2.5l-2.50002,-2.5c-0.27615,-0.2762 -0.72386,-0.2762 -1,0c-0.27615,0.2761 -0.27615,0.7238 0,1l2.79292,2.7929c0.3905,0.3905 1.0237,0.3905 1.4142,0l2.7929,-2.7929c0.2761,-0.2762 0.2761,-0.7239 0,-1c-0.2762,-0.2762 -0.7239,-0.2762 -1,0z" clip-rule="evenodd" fill-rule="evenodd"/>
 </g>
</svg>

<svg width="24" height="24" viewBox="0 0 24 24" fill="none" xmlns="http://www.w3.org/2000/svg">
<path fill-rule="evenodd" clip-rule="evenodd" d="M14.5001 7.50008L12.0001 10.0001L9.50008 7.50008C9.22393 7.22393 8.77622 7.22393 8.50008 7.50008C8.22393 7.77622 8.22393 8.22393 8.50008 8.50008L11.293 11.293C11.6835 11.6835 12.3167 11.6835 12.7072 11.293L15.5001 8.50008C15.7762 8.22393 15.7762 7.77622 15.5001 7.50008C15.2239 7.22393 14.7762 7.22393 14.5001 7.50008ZM14.5001 13.5001L12.0001 16.0001L9.50008 13.5001C9.22393 13.2239 8.77622 13.2239 8.50008 13.5001C8.22393 13.7762 8.22393 14.2239 8.50008 14.5001L11.293 17.293C11.6835 17.6835 12.3167 17.6835 12.7072 17.293L15.5001 14.5001C15.7762 14.2239 15.7762 13.7762 15.5001 13.5001C15.2239 13.2239 14.7762 13.2239 14.5001 13.5001Z" fill="#41F6D7"/>
</svg>
